src/icon/brand/card-visa/icon_card-visa_xxl_white.svg

<?xml version="1.0" encoding="UTF-8"?>
<svg width="48px" height="48px" viewBox="0 0 48 48" version="1.1" xmlns="http://www.w3.org/2000/svg" xmlns:xlink="http://www.w3.org/1999/xlink">
    <!-- Generator: Sketch 49 (51002) - http://www.bohemiancoding.com/sketch -->
    <title>icon_visa_xxl_white</title>
    <desc>Created with Sketch.</desc>
    <defs></defs>
    <g id="Page-1" stroke="none" stroke-width="1" fill="none" fill-rule="evenodd">
        <g id="card_visa_xxl_white">
            <polygon id="Shape" points="0 0 48 0 48 48 0 48"></polygon>
            <path d="M16.1870093,31.751 L18.5331257,17.2595 L22.2881059,17.2595 L19.940497,31.751 L16.1870093,31.751 Z M37.3423529,29.5985 L36.5588216,31.751 L32.6471352,31.751 L38.2452793,18.3395 C38.2452793,18.3395 38.5840633,17.2595 39.9780027,17.2595 L42.9957173,17.2595 L46,31.751 L42.553955,31.751 L42.113685,29.5985 L37.3423529,29.5985 Z M22.8119525,27.9275 C24.3491662,29.168 29.0070729,29.5205 29.0070729,27.554 C29.0070729,25.5875 23.8148725,25.541 23.8148725,21.797 C23.8148725,17.819 28.238466,17 30.1010317,17 C31.823308,17 33.4769321,17.6315 33.4769321,17.6315 L32.9411459,20.744 C31.3337876,19.8545 27.6788009,19.6445 27.6788009,21.2825 C27.6788009,22.9205 32.9172669,23.2715 32.9172669,27.0395 C32.9172669,30.6665 29.0518461,32 26.4908182,32 C23.9297904,32 22.2537798,31.181 22.2537798,31.181 L22.8119525,27.9275 Z M7.76516774,18.5645 L9.02777237,25.082 L9.45162546,27.2285 L13.0304977,17.261 L17.070534,17.261 L11.0977873,31.7525 L7.18759328,31.7525 L3.92959574,19.178 C3.85646616,19.1345 3.78184414,19.0835 3.70871455,19.0415 C3.59081176,18.9725 3.47290896,18.9065 3.35799105,18.8435 C3.17143599,18.7415 2.98935825,18.647 2.81175784,18.5585 C2.71027188,18.5075 2.60430861,18.4535 2.50580754,18.407 C2.28940367,18.3065 2.08195445,18.215 1.88495231,18.134 C1.80883784,18.1025 1.73421582,18.071 1.66257868,18.0425 C1.46259166,17.9645 1.27305172,17.8925 1.1029135,17.834 C1.02232172,17.807 0.953669457,17.7845 0.880539874,17.7605 C0.768606839,17.723 0.659658685,17.687 0.567127377,17.66 C0.505937318,17.6405 0.447732139,17.624 0.395496723,17.609 C0.316397378,17.5865 0.241775355,17.5655 0.186555058,17.552 C0.156706249,17.5445 0.117902797,17.534 0.0955161897,17.528 C0.0477580949,17.516 0,17.5055 0,17.5055 L0.0686522614,17.2595 L5.98468626,17.2595 C7.61293881,17.2595 7.76516774,18.5645 7.76516774,18.5645 Z M40.3958861,21.2015 L38.4228798,26.624 L41.5047693,26.624 L40.3958861,21.2015 Z" id="Combined-Shape" fill="#FFFFFF"></path>
        </g>
    </g>
</svg>

<svg width="48" height="48" viewBox="0 0 48 48" xmlns="http://www.w3.org/2000/svg"><g fill="none" fill-rule="evenodd"><path d="M0 0h48v48H0z"/><path d="M16.187 31.751l2.346-14.492h3.755L19.94 31.752h-3.753zm21.155-2.152l-.783 2.152h-3.912l5.598-13.412s.34-1.08 1.733-1.08h3.018L46 31.752h-3.446l-.44-2.152h-4.772zm-14.53-1.672c1.537 1.241 6.195 1.593 6.195-.373s-5.192-2.013-5.192-5.757c0-3.978 4.423-4.797 6.286-4.797 1.722 0 3.376.631 3.376.631l-.536 3.113c-1.607-.89-5.262-1.1-5.262.538 0 1.639 5.238 1.99 5.238 5.758 0 3.627-3.865 4.96-6.426 4.96s-4.237-.819-4.237-.819l.558-3.254zM7.765 18.564l1.263 6.518.424 2.146 3.578-9.967h4.04l-5.972 14.492h-3.91L3.93 19.178c-.074-.044-.148-.095-.221-.137a14.39 14.39 0 0 0-.897-.483c-.102-.05-.208-.105-.306-.151a15.26 15.26 0 0 0-.621-.273 15.114 15.114 0 0 0-.782-.3l-.222-.073a8.842 8.842 0 0 0-.314-.101c-.061-.02-.12-.036-.172-.051a6.47 6.47 0 0 0-.208-.057l-.091-.024A3.774 3.774 0 0 0 0 17.506l.069-.247h5.916c1.628 0 1.78 1.305 1.78 1.305zm32.63 2.637l-1.972 5.423h3.082l-1.11-5.422z" fill="#FFF"/></g></svg>
